assets/imgs/icon_2.svg

<svg width="40" height="40" viewBox="0 0 40 40" fill="none" xmlns="http://www.w3.org/2000/svg">
<path d="M27.9943 31.5022C26.5758 32.5979 12.9623 32.6205 12.0128 31.5022C11.0633 30.3838 10.1211 25.0924 12.4833 22.4628C14.1356 20.6236 16.9356 20.0934 16.9356 20.0934C16.9356 20.0934 12.7702 18.4087 12.7702 14.258C12.7702 9.9032 15.4208 7 19.9648 7C24.5088 7 26.7808 9.5403 26.7808 14.258C26.7808 18.9757 22.6155 20.0934 22.6155 20.0934C22.6155 20.0934 24.4479 20.4764 26.5757 22.4628C28.7034 24.4491 29.4127 30.4064 27.9943 31.5022Z" fill="white" stroke="#4B4B4B" stroke-width="2" stroke-linecap="round" stroke-linejoin="round"/>
</svg>

<svg width="40" height="40" fill="none" xmlns="http://www.w3.org/2000/svg"><path d="M27.994 31.502c-1.418 1.096-15.032 1.119-15.981 0-.95-1.118-1.892-6.41.47-9.04 1.653-1.838 4.453-2.369 4.453-2.369s-4.166-1.684-4.166-5.835C12.77 9.903 15.42 7 19.965 7c4.544 0 6.816 2.54 6.816 7.258s-4.165 5.835-4.165 5.835 1.832.383 3.96 2.37c2.127 1.986 2.837 7.943 1.418 9.04z" fill="#fff" stroke="#4B4B4B" stroke-width="2" stroke-linecap="round" stroke-linejoin="round"/></svg>
